packages/react/src/components/base/Icon/assets/icon-laptop.svg

<svg width="24" height="24" viewBox="0 0 24 24" xmlns="http://www.w3.org/2000/svg" fill="currentColor"> <path d="M22.25 14.625H21.875V6.75C21.875 6.05381 21.5984 5.38613 21.1062 4.89384C20.6139 4.40156 19.9462 4.125 19.25 4.125H5.75C5.05381 4.125 4.38613 4.40156 3.89384 4.89384C3.40156 5.38613 3.125 6.05381 3.125 6.75V14.625H2.75C2.45163 14.625 2.16548 14.7435 1.9545 14.9545C1.74353 15.1655 1.625 15.4516 1.625 15.75V18C1.625 18.6962 1.90156 19.3639 2.39384 19.8562C2.88613 20.3484 3.55381 20.625 4.25 20.625H20.75C21.4462 20.625 22.1139 20.3484 22.6062 19.8562C23.0984 19.3639 23.375 18.6962 23.375 18V15.75C23.375 15.4516 23.2565 15.1655 23.0455 14.9545C22.8345 14.7435 22.5484 14.625 22.25 14.625ZM5.375 6.75C5.375 6.65054 5.41451 6.55516 5.48484 6.48483C5.55516 6.41451 5.65054 6.375 5.75 6.375H19.25C19.3495 6.375 19.4448 6.41451 19.5152 6.48483C19.5855 6.55516 19.625 6.65054 19.625 6.75V14.625H5.375V6.75ZM21.125 18C21.125 18.0995 21.0855 18.1948 21.0152 18.2652C20.9448 18.3355 20.8495 18.375 20.75 18.375H4.25C4.15054 18.375 4.05516 18.3355 3.98484 18.2652C3.91451 18.1948 3.875 18.0995 3.875 18V16.875H21.125V18ZM15.125 9C15.125 9.29837 15.0065 9.58452 14.7955 9.7955C14.5845 10.0065 14.2984 10.125 14 10.125H11C10.7016 10.125 10.4155 10.0065 10.2045 9.7955C9.99353 9.58452 9.875 9.29837 9.875 9C9.875 8.70163 9.99353 8.41548 10.2045 8.2045C10.4155 7.99353 10.7016 7.875 11 7.875H14C14.2984 7.875 14.5845 7.99353 14.7955 8.2045C15.0065 8.41548 15.125 8.70163 15.125 9Z"/> </svg>

<svg viewBox="0 0 24 24" xmlns="http://www.w3.org/2000/svg" aria-hidden="true" fill="currentColor"><path d="M22.25 14.625h-.375V6.75a2.625 2.625 0 0 0-2.625-2.625H5.75A2.625 2.625 0 0 0 3.125 6.75v7.875H2.75a1.125 1.125 0 0 0-1.125 1.125V18a2.625 2.625 0 0 0 2.625 2.625h16.5A2.625 2.625 0 0 0 23.375 18v-2.25a1.125 1.125 0 0 0-1.125-1.125M5.375 6.75a.375.375 0 0 1 .375-.375h13.5a.375.375 0 0 1 .375.375v7.875H5.375zM21.125 18a.375.375 0 0 1-.375.375H4.25A.375.375 0 0 1 3.875 18v-1.125h17.25zm-6-9A1.125 1.125 0 0 1 14 10.125h-3a1.125 1.125 0 1 1 0-2.25h3A1.125 1.125 0 0 1 15.125 9"/></svg>
